X:33
T:My Love is But a Lassie
T:Farewell to Whiskey
R:polka
D:John McKenna
D:Frankie Gavin: Croch Suas E
Z:id:hn-polka-33
M:2/4
L:1/8
K:G
G/E/|DG B/A/G/A/|BE EG/E/|DG B/A/G/B/|dB Bd|
e/f/g/e/ dB|c/B/A/G/ AB|DG B/A/G/A/|1 BG G:|2 BG G2||
|:dB/d/ gd|e/f/g/e/ dB|dB/d/ gd|ef g>d|
e/f/g/e/ dB|c/B/A/G/ AB|DG B/A/G/A/|1 BG G2:|2 BG G||
